X: 30885
T: Out The Door And Over The Wall
R: slip jig
M: 9/8
K: Fdorian
|:eff|[M:5/8] ef gab|[M:4/8] c'_d'bc'|[M:7/8] gaa a2a2|[M:6/8] gge fff|
[M:5/8]ef eff|ef gab|[M:6/8] c'zbzab|[M:7/8] gaa a2a2|[M:6/8] gge fff:|
|:[M:7/8] gbb b2b2|gbb b2b2|gbb b2b2|gaa a2a2|[M:6/8] gge fff|
[M:7/8] gbb b2b2|gbb b2b2|gbb bc'ab|gaa a2a2|[M:6/8] gge fff:|
[M:7/8]|:fed d{e}d d{e}d|cde d{e}d d{e}d|fed d{e}d d{e}d|[M:6/8] cc=A BBB|
[M:7/8] fed d{e}d d{e}d|[M:9/8] cde g{a}ge g{a}ge|[M:7/8]fed d{e}d d{e}d||

